X:21170 
T:RAMBLER IN CORK (reel), The
B:DMI.0777
Z:Nordberg/Black
R:reel % A-B-A
%Q:1/4=180
M:C
L:1/8
K:D
"E dorian"
G2BG FGAc|B2BA BEEF|G2BG FABc|dBAG FDEF|
G2BG FGAc|B2BA BEEF|G2BG FABc|dBAc BEE2||
g2fg edBA|G2GA Bdef|g2fg edBc|dBAG FDDf|
g2fg edBA|G2GA Bdef|gfed efge|dBAG FDEF||\
"final"E4z4|]

%%%

